domfk/img/icons/icon-2.svg

<svg width="21" height="12" viewBox="0 0 21 12" fill="none" xmlns="http://www.w3.org/2000/svg">
<path d="M4.375 8.57143V6H7V4.28571H4.375V1.71429H2.625V4.28571H0V6H2.625V8.57143H4.375ZM10.5 7.5C8.4525 7.5 4.375 8.50286 4.375 10.5V12H16.625V10.5C16.625 8.50286 12.5475 7.5 10.5 7.5ZM6.4225 10.2857C7.1575 9.78857 8.93375 9.21429 10.5 9.21429C12.0662 9.21429 13.8425 9.78857 14.5775 10.2857H6.4225ZM10.5 6C12.1888 6 13.5625 4.65429 13.5625 3C13.5625 1.34571 12.1888 0 10.5 0C8.81125 0 7.4375 1.34571 7.4375 3C7.4375 4.65429 8.81125 6 10.5 6ZM10.5 1.71429C11.2262 1.71429 11.8125 2.28857 11.8125 3C11.8125 3.71143 11.2262 4.28571 10.5 4.28571C9.77375 4.28571 9.1875 3.71143 9.1875 3C9.1875 2.28857 9.77375 1.71429 10.5 1.71429ZM14.875 6C16.5637 6 17.9375 4.65429 17.9375 3C17.9375 1.34571 16.5637 0 14.875 0C14.665 0 14.455 0.017143 14.2538 0.0600001C14.9188 0.865714 15.3125 1.88571 15.3125 3C15.3125 4.11429 14.9013 5.12571 14.2362 5.93143C14.4462 5.97429 14.6562 6 14.875 6ZM16.905 7.73143C17.78 8.42571 18.375 9.33429 18.375 10.5V12H21V10.5C21 9.05143 18.865 8.13429 16.905 7.73143Z" fill="#FFC844"/>
</svg>

<svg width="21" height="12" fill="none" xmlns="http://www.w3.org/2000/svg"><path d="M4.375 8.571V6H7V4.286H4.375V1.714h-1.75v2.572H0V6h2.625v2.571h1.75zM10.5 7.5c-2.047 0-6.125 1.003-6.125 3V12h12.25v-1.5c0-1.997-4.078-3-6.125-3zm-4.077 2.786c.734-.497 2.51-1.072 4.077-1.072 1.566 0 3.342.575 4.078 1.072H6.423zM10.5 6c1.689 0 3.063-1.346 3.063-3S12.188 0 10.5 0 7.437 1.346 7.437 3 8.812 6 10.5 6zm0-4.286c.726 0 1.313.575 1.313 1.286 0 .711-.587 1.286-1.313 1.286A1.298 1.298 0 019.187 3c0-.711.587-1.286 1.313-1.286zM14.875 6c1.689 0 3.063-1.346 3.063-3s-1.374-3-3.063-3c-.21 0-.42.017-.621.06A4.593 4.593 0 0115.313 3c0 1.114-.412 2.126-1.077 2.931.21.043.42.069.639.069zm2.03 1.731c.875.695 1.47 1.603 1.47 2.769V12H21v-1.5c0-1.449-2.135-2.366-4.095-2.769z" fill="#FFC844"/></svg>
